!!!SOCIAL_FUNCTION: war songs
!!!PDT:	1929
!!!LING_GROUP: Caddoan
!!!LANG: Non-Tone
!!!REG: Oklahoma
!!!COM: Anon.
!!!OTL: Eagle Chief's War Song
!!!ODT: <1920//
!!!MPN: Laduda desadu [He does everything as a chief, John Luwak]
!!!MLC: Pawnee, Oklahoma, United States of America
!! Song was recorded either 1919 or 1920.
!!!AGN: monody
!!!AMT: simple duple
!!!RWG: Transcribed pitches, durations, and meters are only approximate.
!! Drum Tempo:  MM66
!! Drum-rhythm: (8 8 8 8 8 8)
**kern	**recip
*ICvox	*ICidio
*Imale	*Itom
*clefF4	*
*k[f#]	*k[f#]
*[A,B,B]	*[A,B,B]
*>A	*>A
*M2/4	*M2/4
*MM66	*MM66
16g	16r
=1	=1
8.g	8
.	8
16g	.
8.g	8
.	8
16e	.
=2	=2
8.d	8
.	8
16c	.
8.c	8
.	8
*>B	*>B
16e	.
=3	=3
8.d	8
.	8
16e	.
8.d	8
.	8
16B	.
=4	=4
8.G	8
.	8
16G	.
8.G	8
.	8
16d	.
=5	=5
8.B	8
.	8
16d	.
8.G	8
.	8
16B	.
=6	=6
8.G	8
.	8
16G	.
8.G	8
.	8
16B	.
=7	=7
8.G	8
.	8
16G	.
8G	8
8G	8
=8	=8
8G	8
8G	8
8G	8
8G	8
=9	=9
[4G	8
.	8
8.G]	8
.	8
=:|!	=:|!
*-	*-
!!!HAO:    Three generations of Pawnee chiefs bore the name of Eagle Shield
!!!HAO: and the song next following was said to have belonged to
!!!HAO: the chief of the first generation.  The day after he returned
!!!HAO: from a war expedition he mounted his best horse and rode around
!!!HAO: the camp singing this song.  The words mean "I wonder how long
!!!HAO: I am to live in this world."  In explanation it was said the
!!!HAO: old warrior was wondering what his fate might be when he again
!!!HAO: took the warpath.
!!!HTX: [no free translation]
!!!CNT: Pawnee
!!!TXO: Pawnee
!!!OCY: United States
!!!OCL: Frances Densmore
!!!YOR: Frances Densmore, "Pawnee Music"
!!!YOR: Bulletin 93, page 61, No. 32
!!!PPR: Smithsonian Institution, Bureau of American Ethnology
!!!PPR: Government Printing Office
!!!PDT: 1926
!!!PPP: Washington, DC, United States of America
!!!YEC: Electronic Copyright 2000 David Huron
!!!YER: September 2000
!!!YEN: United States of America
!!!ENC: David Huron
!!!RDT: September 3, 2000
!!!EEV: Release 1.0
!!!AIN: tom, vox
